dest/img/img-trust-19.svg

<svg fill="none" height="30" viewBox="0 0 95 30" width="95" xmlns="http://www.w3.org/2000/svg" xmlns:xlink="http://www.w3.org/1999/xlink"><clipPath id="a"><path d="m0 0h30v95h-30z" transform="matrix(0 1 -1 0 95 0)"/></clipPath><g clip-path="url(#a)" fill="#576472"><path d="m73.3174 24.8061c-.6223-.7247-1.0962-1.5658-1.3946-2.4751l-.0808-.2287-.0809-.2795-.0505-.1728-.0808-.3201-.0405-.1881c-.0404-.1779-.0758-.3659-.1061-.5539-.0061-.0683-.0162-.1362-.0303-.2033l-.0404-.3304c.008-.0726.008-.1459 0-.2185l-.0253-.2795 14.1482-3.4305c-.0831-.7367-.3007-1.4517-.6417-2.1091-.5246-1.1493-1.3778-2.1154-2.4507-2.7748-1.1883-.756-2.5234-1.24804-3.916-1.44336l-.2375-.03558c-.8396-.09332-1.6869-.09332-2.5265 0-2.2277.24234-4.3194 1.19714-5.9675 2.72404-1.6274 1.4893-2.7154 3.4812-3.0923 5.6615v.0864c-.0253.1423-.0455.2795-.0607.4371-.0151.1575 0 .1779-.0303.2795.0065.0778.0065.156 0 .2338.01.1353.01.2712 0 .4066v.6556c.0329 1.1768.2795 2.3377.7276 3.4253.799 1.8642 2.1194 3.4546 3.8005 4.5779s3.6505 1.7311 5.6687 1.7494c1.7069.0347 3.3969-.3453 4.9266-1.1079 1.513-.7515 2.8182-1.867 3.7998-3.2475l-.2425-.6149c-1.0005 1.921-7.9028 4.3096-11.9755-.2236zm6.4375-8.4415-8.4132 2.0329c0-.2542 0-.5083.0354-.7471v-.0763c-.0042-.0812-.0042-.1626 0-.2439l.0404-.3303c.0763-.5288.1946-1.0505.3537-1.5603.2854-.9458.7224-1.8384 1.2936-2.6427.521-.7412 1.1905-1.3644 1.9656-1.8296.7418-.446 1.5914-.6781 2.4557-.6708 1.206 0 2.0885.3388 2.6477 1.0164.2036.2362.3737.4995.5053.7827.5609 1.4382.5205 3.8319-.8842 4.269z"/><path d="m48.0685 25.0143c-1.0106 1.9414-7.9028 4.3249-11.9754-.2033-.6679-.7828-1.1669-1.6965-1.4654-2.6834-.3513-1.119-.5219-2.2875-.5053-3.4609-.0075-1.0956.1527-2.1857.475-3.2323.2854-.9458.7223-1.8384 1.2936-2.6427.5118-.7352 1.1689-1.3563 1.9302-1.8245.7419-.4458 1.5915-.6778 2.4557-.6708 1.206 0 2.0885.3388 2.6477 1.0164.5763.7327.8737 1.6482.8388 2.5817.0123.4849-.0595.9681-.2122 1.4281l4.295-1.0164c-1.5614-4.0657-6.7356-4.62985-7.6906-4.62985-8.1958-.13214-12.6929 7.62325-10.0452 13.94035.8 1.8653 2.121 3.457 3.8027 4.5819s3.6519 1.7348 5.6715 1.7556c1.7069.0347 3.397-.3454 4.9266-1.1079 1.5132-.7514 2.8184-1.8669 3.7998-3.2475z"/><path d="m66.7037 25.0145c-1.0106 1.9414-7.9028 4.3249-11.9754-.2033-.6609-.7776-1.1547-1.6843-1.4502-2.6631-.3513-1.119-.5219-2.2875-.5053-3.4609-.0076-1.0956.1526-2.1858.4749-3.2323.2838-.9455.719-1.8381 1.2885-2.6427.5107-.7417 1.1678-1.3697 1.9303-1.8448.7418-.446 1.5914-.6781 2.4557-.6709 1.2026 0 2.0851.3388 2.6477 1.0165.5817.7306.8846 1.6462.854 2.5817.0129.4853-.0607.9689-.2173 1.4281l4.2697-1.0164c-1.5513-4.0658-6.7254-4.6248-7.6703-4.6248-8.1959-.13214-12.693 7.6232-10.0452 13.9404.7947 1.87 2.113 3.4671 3.7943 4.5969 1.6813 1.1297 3.653 1.7433 5.6748 1.7659 1.7103.0364 3.404-.3437 4.9367-1.1079 1.513-.7515 2.8182-1.867 3.7998-3.2475z"/><path d="m91.7308 25.919v-25.91900014l-6.0635 1.48399014h-.0405v.57429c.2123 0 2.0465.50821 2.0465 1.77875v21.99047c0 2.7749-1.9505 3.1764-3.2693 3.2628v.4625h10.596v-.4625c-1.3138-.0864-3.2238-.493-3.2692-3.1713z"/><path d="m18.4382-.00000064-6.0029 1.47891064h-.0455v.44723c.2122 0 1.9959.63527 1.5159 1.77875-2.2789 5.072-9.67131 22.00071-10.06039 22.76301-1.27839 2.5411-3.092389 2.5411-3.84022247 2.6224l-.00000002.4625h9.39844249v-.4727s-3.56737.0407-3.56737-1.8346c0-1.1384 1.84431-5.6158 2.34455-6.8406l12.24329-3.0036c.0303.0763 3.3248 8.101 3.3248 9.7933 0 1.8296-2.9257 1.8855-3.0318 1.8855v.4625h12.2635v-.4625c-.8706.0149-1.7263-.2276-2.461-.6974-.7348-.4698-1.3163-1.1462-1.6723-1.9453-.3689-.7318-10.409-26.43740064-10.409-26.43740064zm1.5613 16.36460064-11.30339 2.7748c.06064-.1474 6.21009-14.64169 6.38189-15.0076.2577.60477 4.9165 12.2328 4.9165 12.2328z"/></g></svg>

<svg width="95" height="30" viewBox="0 0 95 30" fill="none" xmlns="http://www.w3.org/2000/svg">
<g clip-path="url(#clip0)">
<path d="M73.3174 24.8061C72.6951 24.0814 72.2212 23.2403 71.9228 22.331L71.842 22.1023L71.7611 21.8228L71.7106 21.65L71.6298 21.3299L71.5893 21.1418C71.5489 20.9639 71.5135 20.7759 71.4832 20.5879C71.4771 20.5196 71.467 20.4517 71.4529 20.3846L71.4125 20.0542C71.4205 19.9816 71.4205 19.9083 71.4125 19.8357L71.3872 19.5562L85.5354 16.1257C85.4523 15.389 85.2347 14.674 84.8937 14.0166C84.3691 12.8673 83.5159 11.9012 82.443 11.2418C81.2547 10.4858 79.9196 9.99376 78.527 9.79844L78.2895 9.76286C77.4499 9.66954 76.6026 9.66954 75.763 9.76286C73.5353 10.0052 71.4436 10.96 69.7955 12.4869C68.1681 13.9762 67.0801 15.9681 66.7032 18.1484L66.7032 18.2348C66.6779 18.3771 66.6577 18.5143 66.6425 18.6719C66.6274 18.8294 66.6425 18.8498 66.6122 18.9514C66.6187 19.0292 66.6187 19.1074 66.6122 19.1852C66.6222 19.3205 66.6222 19.4564 66.6122 19.5918L66.6122 20.2474C66.6451 21.4242 66.8917 22.5851 67.3398 23.6727C68.1388 25.5369 69.4592 27.1273 71.1403 28.2506C72.8214 29.3739 74.7908 29.9817 76.809 30C78.5159 30.0347 80.2059 29.6547 81.7356 28.8921C83.2486 28.1406 84.5538 27.0251 85.5354 25.6446L85.2929 25.0297C84.2924 26.9507 77.3901 29.3393 73.3174 24.8061ZM79.7549 16.3646L71.3417 18.3975C71.3417 18.1433 71.3417 17.8892 71.3771 17.6504L71.3771 17.5741C71.3729 17.4929 71.3729 17.4115 71.3771 17.3302L71.4175 16.9999C71.4938 16.4711 71.6121 15.9494 71.7712 15.4396C72.0566 14.4938 72.4936 13.6012 73.0648 12.7969C73.5858 12.0557 74.2553 11.4325 75.0304 10.9673C75.7722 10.5213 76.6218 10.2892 77.4861 10.2965C78.6921 10.2965 79.5746 10.6353 80.1338 11.3129C80.3374 11.5491 80.5075 11.8124 80.6391 12.0956C81.2 13.5338 81.1596 15.9275 79.7549 16.3646Z" fill="#576472"/>
<path d="M48.0685 25.0143C47.0579 26.9557 40.1657 29.3392 36.0931 24.811C35.4252 24.0282 34.9262 23.1145 34.6277 22.1276C34.2764 21.0086 34.1058 19.8401 34.1224 18.6667C34.1149 17.5711 34.2751 16.481 34.5974 15.4344C34.8828 14.4886 35.3197 13.596 35.891 12.7917C36.4028 12.0565 37.0599 11.4354 37.8212 10.9672C38.5631 10.5214 39.4127 10.2894 40.2769 10.2964C41.4829 10.2964 42.3654 10.6352 42.9246 11.3128C43.5009 12.0455 43.7983 12.961 43.7634 13.8945C43.7757 14.3794 43.7039 14.8626 43.5512 15.3226L47.8462 14.3062C46.2848 10.2405 41.1106 9.67635 40.1556 9.67635C31.9598 9.54421 27.4627 17.2996 30.1104 23.6167C30.9104 25.482 32.2314 27.0737 33.9131 28.1986C35.5948 29.3235 37.565 29.9334 39.5846 29.9542C41.2915 29.9889 42.9816 29.6088 44.5112 28.8463C46.0244 28.0949 47.3296 26.9794 48.311 25.5988L48.0685 25.0143Z" fill="#576472"/>
<path d="M66.7037 25.0145C65.6931 26.9559 58.8009 29.3394 54.7283 24.8112C54.0674 24.0336 53.5736 23.1269 53.2781 22.1481C52.9268 21.0291 52.7562 19.8606 52.7728 18.6872C52.7652 17.5916 52.9254 16.5014 53.2477 15.4549C53.5315 14.5094 53.9667 13.6168 54.5362 12.8122C55.0469 12.0705 55.704 11.4425 56.4665 10.9674C57.2083 10.5214 58.0579 10.2893 58.9222 10.2965C60.1248 10.2965 61.0073 10.6353 61.5699 11.313C62.1516 12.0436 62.4545 12.9592 62.4239 13.8947C62.4368 14.38 62.3632 14.8636 62.2066 15.3228L66.4763 14.3064C64.925 10.2406 59.7509 9.6816 58.806 9.6816C50.6101 9.54946 46.113 17.3048 48.7608 23.622C49.5555 25.492 50.8738 27.0891 52.5551 28.2189C54.2364 29.3486 56.2081 29.9622 58.2299 29.9848C59.9402 30.0212 61.6339 29.6411 63.1666 28.8769C64.6796 28.1254 65.9848 27.0099 66.9664 25.6294L66.7037 25.0145Z" fill="#576472"/>
<path d="M91.7308 25.919L91.7308 -1.42903e-07L85.6673 1.48399L85.6268 1.48399L85.6268 2.05828C85.8391 2.05828 87.6733 2.56649 87.6733 3.83703L87.6733 25.8275C87.6733 28.6024 85.7228 29.0039 84.404 29.0903L84.404 29.5528L95 29.5528L95 29.0903C93.6862 29.0039 91.7762 28.5973 91.7308 25.919Z" fill="#576472"/>
<path d="M18.4382 -6.35665e-07L12.4353 1.47891L12.3898 1.47891L12.3898 1.92614C12.602 1.92614 14.3857 2.56141 13.9057 3.70489C11.6268 8.77689 4.23439 25.7056 3.84531 26.4679C2.56692 29.009 0.752921 29.009 0.00508753 29.0903L0.00508751 29.5528L9.40353 29.5528L9.40353 29.0801C9.40353 29.0801 5.83616 29.1208 5.83616 27.2455C5.83616 26.1071 7.68047 21.6297 8.18071 20.4049L20.424 17.4013C20.4543 17.4776 23.7488 25.5023 23.7488 27.1946C23.7488 29.0242 20.8231 29.0801 20.717 29.0801L20.717 29.5426L32.9805 29.5426L32.9805 29.0801C32.1099 29.095 31.2542 28.8525 30.5195 28.3827C29.7847 27.9129 29.2032 27.2365 28.8472 26.4374C28.4783 25.7056 18.4382 -6.35665e-07 18.4382 -6.35665e-07ZM19.9995 16.3646L8.69611 19.1394C8.75675 18.992 14.9062 4.49771 15.078 4.1318C15.3357 4.73657 19.9945 16.3646 19.9945 16.3646L19.9995 16.3646Z" fill="#576472"/>
</g>
<defs>
<clipPath id="clip0">
<rect width="30" height="95" fill="white" transform="translate(95) rotate(90)"/>
</clipPath>
</defs>
</svg>
